svg/icons/php.svg

<svg xmlns="http://www.w3.org/2000/svg" viewBox="0 0 512 512"><path d="M462 287.861l-116.969 65.735v-40.762l68.109-38.409-68.109-38.013v-40.867l116.969 65.736v26.58zm-412-26.58l116.97-65.736v40.867l-68.11 38.014 68.109 38.409v40.762l-116.969-65.736v-26.58zm207.602 100.667c-11.506 0-20.836-9.331-20.836-20.841 0-11.503 9.33-20.831 20.836-20.831 11.508 0 20.837 9.328 20.837 20.831-.001 11.51-9.33 20.841-20.837 20.841zm16.382-57.84h-34.349c0-56.909 41.564-67.252 41.564-96.753 0-29.941-46.813-39.121-51.6 5.167h-33.408c3.056-88.397 119.614-75.471 119.614-8.045.002 47.002-41.821 50.939-41.821 99.631z"/></svg>

<?xml version="1.0" encoding="utf-8"?>

<!-- License Agreement at http://iconmonstr.com/license/ -->

<!DOCTYPE svg PUBLIC "-//W3C//DTD SVG 1.1//EN" "http://www.w3.org/Graphics/SVG/1.1/DTD/svg11.dtd">
<svg version="1.1" xmlns="http://www.w3.org/2000/svg" xmlns:xlink="http://www.w3.org/1999/xlink" x="0px" y="0px"
	 width="512px" height="512px" viewBox="0 0 512 512" enable-background="new 0 0 512 512" xml:space="preserve">
<path id="php-code-icon" d="M462,287.861l-116.969,65.735v-40.762l68.109-38.409l-68.109-38.013v-40.867L462,261.281V287.861z
	 M50,261.281l116.97-65.736v40.867L98.86,274.426l68.109,38.409v40.762L50,287.861V261.281z M257.602,361.948
	c-11.506,0-20.836-9.331-20.836-20.841c0-11.503,9.33-20.831,20.836-20.831c11.508,0,20.837,9.328,20.837,20.831
	C278.438,352.617,269.109,361.948,257.602,361.948z M273.984,304.108c0,0-31.24,0-34.349,0c0-56.909,41.564-67.252,41.564-96.753
	c0-29.941-46.813-39.121-51.6,5.167h-33.408c3.056-88.397,119.614-75.471,119.614-8.045
	C315.807,251.479,273.984,255.416,273.984,304.108z"/>
</svg>
